!! 00000] TT[00
!! NN
!!!OTL: Wo zai Guizhou guiyang fu
!!!ARE: Asia, China,Guizhou, Jinpin
!! Ethnic Group: Han
!! II, 153
!!!SCT: C0216
!!!YEM: Copyright 1995, estate of Helmut Schaffrath.
**kern
*ICvox
*Ivox
*M2/4
*k[f#]
*G:
{8g
8b
16a
16b
8a
=1
16a
16b
8g
8b
16a
16b
=2
[2dd
=3
2dd]}
=4
{8b
16b
16dd
8g
8a
=5
8g
16a
16g
8d
16e
16g
=6
2d}
=7
{16a
16b
8g
8b
8a
=8
16a
16b
4dd
8b
=9
8b
8b
8a
8g
=10
16e
16g
8d
4e}
=11
{16e
16g
8d
4r
=12
8b
16b
16dd
4e
=13
8g
16a
16g
4d
=14
16e
16d
16e
16g
4d}
==
!!!AGN: Shange
!! Text schon in der Qing-Dynastie bekannt. Viele Dichter benutzten
!!    das sehr bekannte Gedicht.
!!    Vereinzelt Verzierungen und Glissandi.
!!!ONB: ESAC (Essen Associative Code) Database: CHINA_086
!!!AMT: simple duple
!!!AIN: vox
!!!EED: Helmut Schaffrath
!!!EEV: 1.0
*-
!!!ONB: Tied note syntax fixed by Craig Sapp, 2004/05/03/
